X: 173
T: The Blue-bells of Scotland
O: Scotch
%R: air, march
N: This is version 1, for ABC software that doesn't understand voice overlays.
B: "The Everyday Song Book", 1927
F: http://www.library.pitt.edu/happybirthday/pdf/The_Everyday_Song_Book.pdf
Z: 2017 John Chambers <jc:trillian.mit.edu>
M: 4/4
L: 1/4
K: Eb
% - - - - - - - - - - - - - - - - - - - - - - - - - - - - -
[BB] | [e2G2] [dB][cA] | [B2G2] [cA]([d/F]e/) | [GG][GE] [AC][FD] | [E3E3] |
w: 1.~Oh! where, tell me where is  your* High-land lad-die gone?
w: 2.~Oh! where, tell me where did your* High-land lad-die dwell?
%
[BB] | [e2G2] [dB][cA] | [B2G2] [cA]([d/F]e/) | [GG][GE] [AF][FD] | [E2E2] z |
w: Oh! where, tell me where is  your* High-land lad-die gone?
w: Oh! where, tell me where did your* High-land lad-die dwell?
%
[BD] | [GE][EE] [GE][BD] | [e2C2] [cE]([d/F/][e/G/]) | [dF][BG] [cE][=AF] | [B2D2] |
w: He's gone with stream-ing ban-ners where* no-ble deeds are done,
w: He dwelt in Bon-nie Scot-land, where* blooms the sweet blue bell,
%
[cA][dA] | [e2G2] [dB][cA] | ([B2G2] [cA])([d/F]e/) | [GG][GE] [AC][FD] | [E3E3] |]
w: And it's oh, in my heart,* I* wish him safe at home.
w: And it's oh, in my heart,* I* loved my lad-die well.
% - - - - - - - - - - - - - - - - - - - - - - - - - - - - -

%%sep 1 1 500
%%sep 1 1 500

